X:643
T:A Measure for Margaret
C:Charles Bolton, 1985
L:1/4
M:2/2
R:Reel
S:Colin Hume's website,  colinhume.com  - chords can also be printed below the stave.
Q:1/2=110
K:G
%%center Play ABB ABB ABB A
P:A
B/c/ | "G"dd d/c/ B/c/ | "/"dd2d | "G"gg g/f/e | "D"f3A/B/ |\
"Am"cc "D"c/B/ A/B/ | "Am"cc/d/ "D"c/B/ A/B/ | "Am"ce "D7"dc | "G"B3 B/c/ |
"G"dd d/c/ B/c/ | "/"dd2d | "Em"bb b/a/g | "C"e3 e/f/ |\
"C"gf/g/ "D7"a/g/ f/e/ | "G"dg "Em"Be | "Am"d/e/ d/c/ "D7"BA | "G"G3 ||
K:Gm
P:B
|: B/c/ | "Gm"dd gd | "Cm"fe ce | "D"d/e/ d/c/ "D7"Bc | "Gm"d2- "D7"dB/c/ |\
"Gm"dd gb | "Eb"ag "Cm"eg | "F"f/g/ f/e/ de | "Bb"f2- "F"ff |
"Bb"d'd' d'/c'/b | "Eb"c'g2g | "F"c'c' b/a/g | "Dm"f3 d |\
"Gm"bb b/a/g | "Cm"ag ec | "D"dc "D7"BA | "Gm"G3 :|

